src/svg/buysellads.svg

<svg height="1000" width="857.143" xmlns="http://www.w3.org/2000/svg"><path d="M510.57 606.052h-164.052l82.026 -307.458zm47.988 179.676h173.538l-180.792 -571.392h-245.52l-180.792 571.392h173.538l213.714 -175.212zm298.53 -553.536v535.68q0 65.844 -47.43 113.274t-113.274 47.43h-535.68q-65.844 0 -113.274 -47.43t-47.43 -113.274v-535.68q0 -65.844 47.43 -113.274t113.274 -47.43h535.68q65.844 0 113.274 47.43t47.43 113.274z"/></svg>

<svg height="1000" width="857.1" xmlns="http://www.w3.org/2000/svg"><path d="M510.6 606H346.5l82.1 -307.5zm48 179.7h173.5L551.3 214.3H305.8L125 785.7h173.5L512.3 610.5zM857.1 232.1v535.8q0 65.8 -47.4 113.2t-113.3 47.5H160.7q-65.8 0 -113.3 -47.5T0 767.9V232.1Q0 166.3 47.4 118.9T160.7 71.4h535.7q65.9 0 113.3 47.5t47.4 113.2z"/></svg>
